X: 19
T:Denis Murphy's Slide No. 2 [Weaver's]
T:Weaver's, Slide The
M:12/8
L:1/8
R:Slide
K:D
fed B2d A2d F2B|A2F DEF E3 E2g|
fed B2d A2d F2B|A2F EFE D3 D2 g:|
|:f2f a2a baf a2f|fef afd g3 g2e|
[1 f2f a2a baf a2f|fef afe d3 d2e:|
[2 fga efg fed Bcd|ABA GFE D3 g3|]
